src/assets/svg/icons/social/facebook.svg

<svg width="24" height="24" viewBox="0 0 24 24" fill="none" xmlns="http://www.w3.org/2000/svg">
<g id="icons/social/facebook">
<path id="icon" fill-rule="evenodd" clip-rule="evenodd" d="M4 2H20C21.1046 2 22 2.89543 22 4V20C22 21.1046 21.1046 22 20 22H4C2.89543 22 2 21.1046 2 20V4C2 2.89543 2.89543 2 4 2ZM4 4V20H20V4H4ZM11.1331 12.0044H13V18H15V12.0044H16.9824V10.0044H15V9C15 8.44772 15.4477 8 16 8H17V6H16C14.3431 6 13 7.34315 13 9V10.0044H11.1331V12.0044Z" fill="#101010"/>
</g>
</svg>

<svg xmlns="http://www.w3.org/2000/svg" fill="none" viewBox="0 0 24 24">
  <path fill="currentColor" fill-rule="evenodd" d="M4 2h16a2 2 0 0 1 2 2v16a2 2 0 0 1-2 2H4a2 2 0 0 1-2-2V4a2 2 0 0 1 2-2Zm0 2v16h16V4H4Zm7.133 8.004H13V18h2v-5.996h1.982v-2H15V9a1 1 0 0 1 1-1h1V6h-1a3 3 0 0 0-3 3v1.004h-1.867v2Z" clip-rule="evenodd"/>
</svg>
